icons/light/dll.svg

<svg width="16" height="16" viewBox="0 0 16 16" fill="none" xmlns="http://www.w3.org/2000/svg">
<path d="M9.70703 1.29297L12.707 4.29297L13 5V8H12V6H8V2H3V14H8V15H3L2 14V2L3 1H9L9.70703 1.29297ZM9 5H12L9 2V5Z" fill="#424242"/>
<path d="M11.5892 9.00003C11.5484 8.99927 11.5087 9.01289 11.477 9.03849C11.4453 9.06409 11.4237 9.10004 11.4158 9.14003L11.2892 10.02C11.0892 10.1067 10.8958 10.2134 10.7225 10.3334L9.89583 10C9.8225 10 9.73583 10 9.68917 10.0867L9.0225 11.24C8.9825 11.3134 8.99583 11.4 9.0625 11.4534L9.76917 12C9.74262 12.2215 9.74262 12.4453 9.76917 12.6667L9.0625 13.2134C9.03254 13.2391 9.01225 13.2742 9.00498 13.313C8.9977 13.3518 9.00388 13.3919 9.0225 13.4267L9.68917 14.58C9.72917 14.6667 9.81583 14.6667 9.89583 14.6667L10.7225 14.3334C10.8958 14.4534 11.0825 14.5667 11.2892 14.6467L11.4158 15.5267C11.4292 15.6067 11.4958 15.6667 11.5892 15.6667H12.9225C12.9958 15.6667 13.0692 15.6067 13.0825 15.5267L13.2092 14.6467C13.4092 14.56 13.5892 14.4534 13.7692 14.3334L14.5892 14.6667C14.6758 14.6667 14.7625 14.6667 14.8092 14.58L15.4758 13.4267C15.4944 13.3919 15.5006 13.3518 15.4934 13.313C15.4861 13.2742 15.4658 13.2391 15.4358 13.2134L14.7225 12.6667C14.7358 12.5534 14.7492 12.4467 14.7492 12.3334C14.7492 12.22 14.7425 12.1134 14.7225 12L15.4292 11.4534C15.4591 11.4277 15.4794 11.3925 15.4867 11.3537C15.494 11.3149 15.4878 11.2748 15.4692 11.24L14.8025 10.0867C14.7625 10 14.6758 10 14.5892 10L13.7692 10.3334C13.5892 10.2134 13.4092 10.1 13.2025 10.02L13.0758 9.14003C13.0716 9.10206 13.0538 9.06691 13.0255 9.04115C12.9973 9.01538 12.9607 9.00077 12.9225 9.00003M12.2558 11.3334C12.8092 11.3334 13.2558 11.78 13.2558 12.3334C13.2558 12.8867 12.8092 13.3334 12.2558 13.3334C11.6958 13.3334 11.2558 12.8867 11.2558 12.3334C11.2558 11.78 11.7025 11.3334 12.2558 11.3334Z" fill="#424242"/>
</svg>

<svg xmlns="http://www.w3.org/2000/svg" width="16" height="16" fill="#424242" xmlns:v="https://vecta.io/nano"><path d="M9.707 1.293l3 3L13 5v3h-1V6H8V2H3v12h5v1H3l-1-1V2l1-1h6l.707.293zM9 5h3L9 2v3zm2.589 4c-.041-.001-.081.013-.112.038s-.053.062-.061.102l-.127.88a3.33 3.33 0 0 0-.567.313L9.896 10c-.073 0-.16 0-.207.087l-.667 1.153c-.04.073-.027.16.04.213l.707.547a2.8 2.8 0 0 0 0 .667l-.707.547c-.03.026-.05.061-.058.1s-.001.079.018.114l.667 1.153c.04.087.127.087.207.087l.827-.333a2.74 2.74 0 0 0 .567.313l.127.88c.013.08.08.14.173.14h1.333a.17.17 0 0 0 .16-.14l.127-.88c.2-.087.38-.193.56-.313l.82.333c.087 0 .173 0 .22-.087l.667-1.153c.019-.035.025-.075.018-.114s-.028-.074-.058-.1l-.713-.547.027-.333a1.87 1.87 0 0 0-.027-.333l.707-.547c.03-.026.05-.061.058-.1s.001-.079-.018-.114l-.667-1.153c-.04-.087-.127-.087-.213-.087l-.82.333c-.18-.12-.36-.233-.567-.313l-.127-.88c-.004-.038-.022-.073-.05-.099s-.065-.04-.103-.041m-.667 2.333a1 1 0 1 1 0 2c-.56 0-1-.447-1-1a1 1 0 0 1 1-1z"/></svg>
